X:18222
T:Vaqueira
R:Vaqueirada
C:Tradicional
S:Música Tradicional Asturiana, (C) Tello & Tito. Asturies, 2001.
S:http://pagina.de/MusTradAst <telloytito@asturies.org>
O:Somiedu
A:Asturies
B:Musicología Asturiana - La Canción Tradicional, Modesto González Cobas
Z:La Canción Tradicional, M.G.C.
M:6/8
L:1/8
Q:3/8=90
W:1º
W:sola soy sola nací sola me parió mi madre
W:solita tengo a vevir hasta que el mundo se acabe
W:2º
W:cuando pasé por cauneu dije al macho delanteiro
W:que las fitsas de patricio nun son pa ningún vaqueiro
W:3º
W:soy de la braña modreiros bien me lo dice la cara
W:que no me tienen mis padres a la sombra de la rama
K:Eb
|E>EE EGA|B6|A>GF BBB|A>GF-F3|FBB ABB|AGF/G/4F/4 E3|DEF _GBA|F2 E-E3|


